X:1
T:7 Lieder, Op. 48
T:Vergangen ist mir Glück und Heil
T:6. Vergangen ist mir Glück und Heil
T:Johannes Brahms
T:7 Lieder, Op. 48
T:Traditional (Old German)
T:Creative Commons copyright waiver (CC0 1.0 Universal)
T:Creative Commons copyright waiver (CC0 1.0 Universal)
C:Johannes Brahms
Z:Traditional (Old German)
Z:Creative Commons copyright waiver (CC0 1.0 Universal)
%%score ( 1 2 )
L:1/8
Q:1/4=160
M:4/2
K:C
V:1 treble nm="Singstimme\nVoice"
V:2 treble 
V:1
"^Andante" A8 | A4 c4 B4 A4 | G4 F4 E8 | A8 F4 G4 | E4 A4 (F2 G2 E4) | D8 A8 | A4 c4 B4 A4 | %7
w: 1. Ver-|gan- gen ist mir|Glück und Heil|und al- le|Freud auf Er- * *|den; e-|lend bin ich ver-|
w: |||||||
 G4 F4 E8 | A8 F4 G4 | E4 A4 (F2 G2 E4) | D8 A8 | B4 c4 B8 | c8 d4 e4 | d8 e8 | g4 f4 e4 d4 | %15
w: lo- ren gar,|mir mag nit|bes- ser wer- * *|den. Bis|in den Tod|leid ich gross|Not, so|ich dich Lieb muss|
w: ||||||||
 ^c8 d8 | A8 B4 c4 | B8 c8 | d4 e4 d8 | e8 g4 f4 | e4 d4 ^c8 | d8 d8 | d4 =c4 A4 G4 | E8 D8 | z8 |: %25
w: mei- den,|ge- schieht mir|Ach, o|weh der Sach!|Muss ich mich|dein ver- je-|hen, gross|Leid wird mir ge-|sche- hen.||
w: ||||||||||
 A8 | A4 c4 B4 A4 | G4 F4 E8 | A8 F4 G4 | E4 A4 (F2 G2 E4) | D8 A8 | A4 c4 B4 A4 | G4 F4 E8 | %33
w: 2. Er-|bar- men tu ich|mich so hart,|das kommt aus|Buh- lers Hul- * *|de, die|mich in Angst und|Not hat bracht,|
w: 3. Um|Hülf ich ruf, mein|höch- ster Hort,|er- hör mein|sehn- lich Kla- * *|gen! Schaff|mir, Herz- lieb, dein|Bot- schaft schier,|
 A8 F4 G4 | E4 A4 (F2 G2 E4) | D8 A8 | B4 c4 B8 | c8 d4 e4 | d8 e8 | g4 f4 e4 d4 | ^c8 d8 | %41
w: und wil- lig-|lich das dul- * *|de. Um|dich al- lein,|Herz- lieb- ste|mein, ist|mir kein Bürd zu|schwe- re,|
w: ich muss *|Leid ver- za- * *|gen! Mein|trau- rigs Herz|leid't gro- ssen|Schmerz, wie|soll ichs ü- ber-|win- den?|
 A8 B4 c4 | B8 c8 | d4 e4 d8 | e8 g4 f4 | e4 d4 ^c8 | d8 d8 | d4 =c4 A4 G4 | E8 D8 | z8 :| %50
w: wärs noch so|viel, ich|den- noch will|in dei- nem|Dienst er- ster-|ben, nach|frem- der Lieb nit|wer- ben.||
w: Ich sorg dass|schier der|Tod mit mir|will rin- gen|um das Le-|ben, tu|mir dein Tro- ste|ge- ben.||
V:2
 x8 | x16 | x16 | x16 | x16 | x16 | x16 | x16 | x16 | x16 | x16 | x16 | x16 | x16 | x16 | x16 | %16
w: ||||||||||||||||
w: ||||||||||||||||
 x16 | x16 | x16 | x16 | x16 | x16 | x16 | x16 | x8 |: x8 | x16 | x16 | x16 | x16 | x16 | x16 | %32
w: ||||||||||||||||
w: ||||||||||||||||
 x16 | x8 x4 G2 G2 | x16 | x16 | x16 | x16 | x16 | x16 | x16 | x16 | x16 | x16 | x16 | x16 | x16 | %47
w: |||||||||||||||
w: |sonst vor||||||||||||||
 x16 | x16 | x8 :| %50
w: |||
w: |||

